X:1
T:Only Touch Him
T:Only Touch Him
T:P. Keil, Jr.
T:T. N. Eaton, 1894
T:Public Domain Courtesy of the Cyber Hymnal™
C:P. Keil, Jr.
Z:Public Domain
Z:Courtesy of the Cyber Hymnal™
%%score ( 1 2 ) ( 3 4 )
L:1/8
Q:1/4=93
M:6/8
K:Bb
V:1 treble 
V:2 treble 
V:3 bass 
V:4 bass 
V:1
 [DF]2 [DF] [EG][DF][^C=E] | [DF]2 [DB] [Fd]2 [DB] | [EG]2 [EG] [=EG][FA][GB] | %3
w: 1.~Earth’s phy- si- cians know|not to heal thee,|Thou hast tried them a-|
w: 2.~This Phy- si- cian hath|power to heal thee,|Men have tried Him a-|
w: 3.~They must die who re-|fuse to trust Him,|There is no o- ther|
 [Fc][FA][Fd] [Fc]3 | [DF]2 [DF] [EG][DF][^C=E] | [DF]2 [DB] [Fd]2 [DB] | [EG]2 [Ge] [Fd][Ec][DB] | %7
w: gain and a- gain;|Hu- man a- gen- cies|ne’er can cleanse thee,|Haste to come to the|
w: gain and a- gain;|You need no- thing but|just to touch Him,|Haste to come to this|
w: heal- ing for thee;|They shall cer- tain- ly|live who touch Him,|Haste to come to the|
 [Ec][EG][EA] !fermata![DB]2 ||"^Refrain" [DF] | [Fd]>[Fc][FB] [GB][FA][EG] | [DF]3 [B,D]2 F | %11
w: Sav- ior of men.||||
w: Sav- ior of men.|O|touch but the hem of His|gar- ment, And|
w: Sav- ior and see.||||
 [GB]>[GB][GB] [=EB][Ec][Ed] | [Fc]3- [Fc]2 [_EF] | [Fd]>[Fc][FB] [_AB][Ac][Ad] | %14
w: |||
w: vir- tue shall come out to|thee; * So|shalt thou be saved in a|
w: |||
 [Ge]3 !fermata![EG]2 [^CG] | [DF][DB][Fd] [Ec][EG][EA] | [DB]3- [DB]2 z |] %17
w: |||
w: mo- ment, O|sin- ner, but touch Him and|see. *|
w: |||
V:2
 x6 | x6 | x6 | x6 | x6 | x6 | x6 | x5 || x | x6 | x5 F | x6 | x6 | x6 | x6 | x6 | x6 |] %17
V:3
 [B,,B,]2 [B,,B,] [B,,B,][B,,B,][B,,B,] | [B,,B,]2 [B,,F,] [B,,F,]2 [B,,B,] | %2
 [E,B,]2 [E,B,] [C,C][C,C][C,C] | [F,A,][F,C][F,B,] [F,A,]3 | %4
 [B,,B,]2 [B,,B,] [B,,B,][B,,B,][B,,B,] | [B,,B,]2 [B,,F,] [B,,F,]2 [B,,B,] | %6
 [E,B,]2 [C,B,] [D,B,][E,A,][F,B,] | [E,G,][C,G,]F, !fermata![B,,F,]2 || [B,,B,] | %9
 [B,,B,]>[C,A,][D,B,] [E,B,][E,B,][E,B,] | [B,,B,]3 [B,,F,]2 [B,,D] | %11
 [G,D]>[G,D][G,D] [C,C][C,C][C,B,] | [F,A,]3- [F,A,]2 [F,A,] | %13
 [B,,B,]>[C,A,][D,B,] [F,B,][D,B,][B,,B,] | [E,B,]3 !fermata![E,B,]2 [=E,B,] | %15
 [F,B,][F,B,][F,B,] [F,B,][F,B,]F, | [B,,F,]3- [B,,F,]2 z |] %17
V:4
 x6 | x6 | x6 | x6 | x6 | x6 | x6 | x2 F, x2 || x | x6 | x6 | x6 | x6 | x6 | x6 | x5 F, | x6 |] %17

